src/svg/uf1ad-building.svg

<!-- Generated by IcoMoon.io -->
<svg version="1.1" xmlns="http://www.w3.org/2000/svg" width="25" height="32" viewBox="0 0 25 32">
<path d="M24 0c0.625 0 1.143 0.518 1.143 1.143v29.714c0 0.625-0.518 1.143-1.143 1.143h-22.857c-0.625 0-1.143-0.518-1.143-1.143v-29.714c0-0.625 0.518-1.143 1.143-1.143h22.857zM9.143 5.143v1.143c0 0.321 0.25 0.571 0.571 0.571h1.143c0.321 0 0.571-0.25 0.571-0.571v-1.143c0-0.321-0.25-0.571-0.571-0.571h-1.143c-0.321 0-0.571 0.25-0.571 0.571zM9.143 9.714v1.143c0 0.321 0.25 0.571 0.571 0.571h1.143c0.321 0 0.571-0.25 0.571-0.571v-1.143c0-0.321-0.25-0.571-0.571-0.571h-1.143c-0.321 0-0.571 0.25-0.571 0.571zM9.143 14.286v1.143c0 0.321 0.25 0.571 0.571 0.571h1.143c0.321 0 0.571-0.25 0.571-0.571v-1.143c0-0.321-0.25-0.571-0.571-0.571h-1.143c-0.321 0-0.571 0.25-0.571 0.571zM9.143 18.857v1.143c0 0.321 0.25 0.571 0.571 0.571h1.143c0.321 0 0.571-0.25 0.571-0.571v-1.143c0-0.321-0.25-0.571-0.571-0.571h-1.143c-0.321 0-0.571 0.25-0.571 0.571zM6.857 24.571v-1.143c0-0.321-0.25-0.571-0.571-0.571h-1.143c-0.321 0-0.571 0.25-0.571 0.571v1.143c0 0.321 0.25 0.571 0.571 0.571h1.143c0.321 0 0.571-0.25 0.571-0.571zM6.857 20v-1.143c0-0.321-0.25-0.571-0.571-0.571h-1.143c-0.321 0-0.571 0.25-0.571 0.571v1.143c0 0.321 0.25 0.571 0.571 0.571h1.143c0.321 0 0.571-0.25 0.571-0.571zM6.857 15.429v-1.143c0-0.321-0.25-0.571-0.571-0.571h-1.143c-0.321 0-0.571 0.25-0.571 0.571v1.143c0 0.321 0.25 0.571 0.571 0.571h1.143c0.321 0 0.571-0.25 0.571-0.571zM6.857 10.857v-1.143c0-0.321-0.25-0.571-0.571-0.571h-1.143c-0.321 0-0.571 0.25-0.571 0.571v1.143c0 0.321 0.25 0.571 0.571 0.571h1.143c0.321 0 0.571-0.25 0.571-0.571zM6.857 6.286v-1.143c0-0.321-0.25-0.571-0.571-0.571h-1.143c-0.321 0-0.571 0.25-0.571 0.571v1.143c0 0.321 0.25 0.571 0.571 0.571h1.143c0.321 0 0.571-0.25 0.571-0.571zM16 29.143v-3.429c0-0.321-0.25-0.571-0.571-0.571h-5.714c-0.321 0-0.571 0.25-0.571 0.571v3.429c0 0.321 0.25 0.571 0.571 0.571h5.714c0.321 0 0.571-0.25 0.571-0.571zM16 20v-1.143c0-0.321-0.25-0.571-0.571-0.571h-1.143c-0.321 0-0.571 0.25-0.571 0.571v1.143c0 0.321 0.25 0.571 0.571 0.571h1.143c0.321 0 0.571-0.25 0.571-0.571zM16 15.429v-1.143c0-0.321-0.25-0.571-0.571-0.571h-1.143c-0.321 0-0.571 0.25-0.571 0.571v1.143c0 0.321 0.25 0.571 0.571 0.571h1.143c0.321 0 0.571-0.25 0.571-0.571zM16 10.857v-1.143c0-0.321-0.25-0.571-0.571-0.571h-1.143c-0.321 0-0.571 0.25-0.571 0.571v1.143c0 0.321 0.25 0.571 0.571 0.571h1.143c0.321 0 0.571-0.25 0.571-0.571zM16 6.286v-1.143c0-0.321-0.25-0.571-0.571-0.571h-1.143c-0.321 0-0.571 0.25-0.571 0.571v1.143c0 0.321 0.25 0.571 0.571 0.571h1.143c0.321 0 0.571-0.25 0.571-0.571zM20.571 24.571v-1.143c0-0.321-0.25-0.571-0.571-0.571h-1.143c-0.321 0-0.571 0.25-0.571 0.571v1.143c0 0.321 0.25 0.571 0.571 0.571h1.143c0.321 0 0.571-0.25 0.571-0.571zM20.571 20v-1.143c0-0.321-0.25-0.571-0.571-0.571h-1.143c-0.321 0-0.571 0.25-0.571 0.571v1.143c0 0.321 0.25 0.571 0.571 0.571h1.143c0.321 0 0.571-0.25 0.571-0.571zM20.571 15.429v-1.143c0-0.321-0.25-0.571-0.571-0.571h-1.143c-0.321 0-0.571 0.25-0.571 0.571v1.143c0 0.321 0.25 0.571 0.571 0.571h1.143c0.321 0 0.571-0.25 0.571-0.571zM20.571 10.857v-1.143c0-0.321-0.25-0.571-0.571-0.571h-1.143c-0.321 0-0.571 0.25-0.571 0.571v1.143c0 0.321 0.25 0.571 0.571 0.571h1.143c0.321 0 0.571-0.25 0.571-0.571zM20.571 6.286v-1.143c0-0.321-0.25-0.571-0.571-0.571h-1.143c-0.321 0-0.571 0.25-0.571 0.571v1.143c0 0.321 0.25 0.571 0.571 0.571h1.143c0.321 0 0.571-0.25 0.571-0.571z"></path>
</svg>

<svg xmlns="http://www.w3.org/2000/svg" width="25" height="32"><path d="M24 0c.625 0 1.143.518 1.143 1.143v29.714c0 .625-.518 1.143-1.143 1.143H1.143A1.151 1.151 0 0 1 0 30.857V1.143C0 .518.518 0 1.143 0H24zM9.143 5.143v1.143c0 .321.25.571.571.571h1.143c.321 0 .571-.25.571-.571V5.143a.564.564 0 0 0-.571-.571H9.714a.564.564 0 0 0-.571.571zm0 4.571v1.143c0 .321.25.571.571.571h1.143c.321 0 .571-.25.571-.571V9.714a.564.564 0 0 0-.571-.571H9.714a.564.564 0 0 0-.571.571zm0 4.572v1.143c0 .321.25.571.571.571h1.143c.321 0 .571-.25.571-.571v-1.143a.564.564 0 0 0-.571-.571H9.714a.564.564 0 0 0-.571.571zm0 4.571V20c0 .321.25.571.571.571h1.143c.321 0 .571-.25.571-.571v-1.143a.564.564 0 0 0-.571-.571H9.714a.564.564 0 0 0-.571.571zm-2.286 5.714v-1.143a.564.564 0 0 0-.571-.571H5.143a.564.564 0 0 0-.571.571v1.143c0 .321.25.571.571.571h1.143c.321 0 .571-.25.571-.571zm0-4.571v-1.143a.564.564 0 0 0-.571-.571H5.143a.564.564 0 0 0-.571.571V20c0 .321.25.571.571.571h1.143c.321 0 .571-.25.571-.571zm0-4.571v-1.143a.564.564 0 0 0-.571-.571H5.143a.564.564 0 0 0-.571.571v1.143c0 .321.25.571.571.571h1.143c.321 0 .571-.25.571-.571zm0-4.572V9.714a.564.564 0 0 0-.571-.571H5.143a.564.564 0 0 0-.571.571v1.143c0 .321.25.571.571.571h1.143c.321 0 .571-.25.571-.571zm0-4.571V5.143a.564.564 0 0 0-.571-.571H5.143a.564.564 0 0 0-.571.571v1.143c0 .321.25.571.571.571h1.143c.321 0 .571-.25.571-.571zM16 29.143v-3.429a.564.564 0 0 0-.571-.571H9.715a.564.564 0 0 0-.571.571v3.429c0 .321.25.571.571.571h5.714c.321 0 .571-.25.571-.571zM16 20v-1.143a.564.564 0 0 0-.571-.571h-1.143a.564.564 0 0 0-.571.571V20c0 .321.25.571.571.571h1.143c.321 0 .571-.25.571-.571zm0-4.571v-1.143a.564.564 0 0 0-.571-.571h-1.143a.564.564 0 0 0-.571.571v1.143c0 .321.25.571.571.571h1.143c.321 0 .571-.25.571-.571zm0-4.572V9.714a.564.564 0 0 0-.571-.571h-1.143a.564.564 0 0 0-.571.571v1.143c0 .321.25.571.571.571h1.143c.321 0 .571-.25.571-.571zm0-4.571V5.143a.564.564 0 0 0-.571-.571h-1.143a.564.564 0 0 0-.571.571v1.143c0 .321.25.571.571.571h1.143c.321 0 .571-.25.571-.571zm4.571 18.285v-1.143a.564.564 0 0 0-.571-.571h-1.143a.564.564 0 0 0-.571.571v1.143c0 .321.25.571.571.571H20c.321 0 .571-.25.571-.571zm0-4.571v-1.143a.564.564 0 0 0-.571-.571h-1.143a.564.564 0 0 0-.571.571V20c0 .321.25.571.571.571H20c.321 0 .571-.25.571-.571zm0-4.571v-1.143a.564.564 0 0 0-.571-.571h-1.143a.564.564 0 0 0-.571.571v1.143c0 .321.25.571.571.571H20c.321 0 .571-.25.571-.571zm0-4.572V9.714A.564.564 0 0 0 20 9.143h-1.143a.564.564 0 0 0-.571.571v1.143c0 .321.25.571.571.571H20c.321 0 .571-.25.571-.571zm0-4.571V5.143A.564.564 0 0 0 20 4.572h-1.143a.564.564 0 0 0-.571.571v1.143c0 .321.25.571.571.571H20c.321 0 .571-.25.571-.571z"/></svg>
